X:1
T:RVW2/1/7 Basket Of Eggs-0
T:RVW2/1/7 Basket Of Eggs-0
T:Sung by Mr. Jake Willis (Crimean veteran) at Hadleigh, Sept. 3rd and 4th 1907 (1 of 7)
T:Transcribed by Simon Furey and Lewis Jones
C:Transcribed by Simon Furey and Lewis Jones
L:1/8
Q:1/4=66
M:6/8
K:B
V:1 treble 
V:1
"^(Editorial suggestion)" F | AA"^(a)" A3 F | BBA F2 A |[M:5/8] BA FED | EE F2 F | B,C DCD | %6
"^(b)" EC DEF/G/ | AA FDB, |[M:6/8] CD B,2 z || F | AA"^(a) var." A2 FA | BBA F2 A |[M:5/8] BAFED | %13
 EE F2 F | B,CDCD |[M:6/8]"^(b) var." EED E2 F |[M:5/8] GA FDB, |[M:6/8] CD B,2 z |] %18

